icon/ir/podcast.svg

<svg viewBox="0 0 24 24" stroke-width="1.5" fill="none" xmlns="http://www.w3.org/2000/svg" height="1em" width="1em">
  <path d="M6 19.0007C3.57111 17.1763 2 14.2716 2 11C2 5.47715 6.47715 1 12 1C17.5228 1 22 5.47715 22 11C22 14.2716 20.4289 17.1763 18 19.0007" stroke="currentColor" stroke-linecap="round" stroke-linejoin="round"/>
  <path d="M6 19.0007C3.57111 17.1763 2 14.2716 2 11C2 5.47715 6.47715 1 12 1C17.5228 1 22 5.47715 22 11C22 14.2716 20.4289 17.1763 18 19.0007" stroke="currentColor" stroke-linecap="round" stroke-linejoin="round"/>
  <path d="M7.52779 15C6.57771 13.9385 6 12.5367 6 11C6 7.68629 8.68629 5 12 5C15.3137 5 18 7.68629 18 11C18 12.5367 17.4223 13.9385 16.4722 15" stroke="currentColor" stroke-linecap="round" stroke-linejoin="round"/>
  <path d="M12 13C13.1046 13 14 12.1046 14 11C14 9.89543 13.1046 9 12 9C10.8954 9 10 9.89543 10 11C10 12.1046 10.8954 13 12 13Z" stroke="currentColor" stroke-linecap="round" stroke-linejoin="round"/>
  <path d="M10.076 16.2827L10.8906 15.7396C11.5624 15.2917 12.4376 15.2917 13.1094 15.7396L13.924 16.2827C14.5789 16.7192 14.9168 17.4993 14.7874 18.2756L14.2785 21.3288C14.1178 22.2932 13.2834 23 12.3057 23H11.6943C10.7166 23 9.8822 22.2932 9.72147 21.3288L9.2126 18.2756C9.08321 17.4993 9.42114 16.7192 10.076 16.2827Z" stroke="currentColor" stroke-linecap="round" stroke-linejoin="round"/>
</svg>

<svg width="24" height="24" stroke-width="1.5" fill="none" xmlns="http://www.w3.org/2000/svg"><path d="M6 19a9.985 9.985 0 0 1-4-8C2 5.477 6.477 1 12 1s10 4.477 10 10a9.985 9.985 0 0 1-4 8" stroke="currentColor" stroke-linecap="round" stroke-linejoin="round"/><path d="M6 19a9.985 9.985 0 0 1-4-8C2 5.477 6.477 1 12 1s10 4.477 10 10a9.985 9.985 0 0 1-4 8" stroke="currentColor" stroke-linecap="round" stroke-linejoin="round"/><path d="M7.528 15a6 6 0 1 1 8.944 0" stroke="currentColor" stroke-linecap="round" stroke-linejoin="round"/><path d="M12 13a2 2 0 1 0 0-4 2 2 0 0 0 0 4ZM10.076 16.283l.815-.543a2 2 0 0 1 2.218 0l.815.543a2 2 0 0 1 .863 1.993l-.509 3.053A2 2 0 0 1 12.306 23h-.612a2 2 0 0 1-1.973-1.671l-.508-3.053a2 2 0 0 1 .863-1.993Z" stroke="currentColor" stroke-linecap="round" stroke-linejoin="round"/></svg>
